X:1
T:Sweet and Lovely
M:4/4
L:1/4
K:C
 C2 D2| E2 C E/2E/2| F F E E| D D C2| E2 F2| G2 E G| A A G G| F F E2|\
 c2 B2| c2 G c| c c c c|c/2-B/2A/2-B/2 c2|

